X: 13
T:Pipe Major Jim Chisolms March
M:C
L:1/8
Q:140
C:A. Harper
S:(From the playing of Buddy MacMaster)
D:"Judique on the Floor";Buddy MacMaster,1989, Sea Scape Music,ACD-90
N:from The Scottish Music List, Vol2 No 67
Z:W. Armstrong, Jan-98
K:G
Bd|e2de AAAB|eAB<de2ge|d2Bd edBd|gedB edBG|!
e2 de AAAB|eABd e2ag|e<ged B<de<g!B2A2A2:|!
|:fgaA Aage|eged B<de2|ged2 Bded|B<dge dBed|!
BGe2 deAA|ABeA B<de2|age<g edB<d|e<gB2A2A2:|!
